X: 33503
T: Railway, The
R: polka
M: 2/4
K: Amajor
|:F2 EF|AA- AB|ce e/f/e/c/|BA FD/E/|
F2 EF|AA- AB|ce e/f/e/c/|1 BA A2:|2 BA AB/c/||
|:de g>b|ac cd|eG AB|cd eB/c/|
de g>b|ac cd|eG AB|1 cA AB/c/:|2 cA AG||
FE AE|FE AE|FE Ac|cB AG|
FE AE|FE AB|ce e/f/e/c/|BA A>B||
cA BA|cA BA/B/|ce e/f/e/c/|BA BA/B/|
cA BA|cA BA/B/|ce e/f/e/c/|BA AG||

